dist/svg/add-circle-o.svg

<!-- Generated by Trend Micro Style Portal -->
<svg version="1.1" xmlns="http://www.w3.org/2000/svg" width="16" height="16" viewBox="0 0 16 16">
  <title>add-circle-o</title>
  <path fill="rgb(34,34,34)" d="M9 7h3v2h-3v3h-2v-3h-3v-2h3v-3h2v3zM16 8c0 4.4-3.6 8-8 8s-8-3.6-8-8 3.6-8 8-8 8 3.6 8 8zM14.5 8c0-3.6-2.9-6.5-6.5-6.5s-6.5 2.9-6.5 6.5 2.9 6.5 6.5 6.5 6.5-2.9 6.5-6.5z"></path>
</svg>

<svg width="16" height="16" viewBox="0 0 16 16" fill="rgb(34, 34, 34)" xmlns="http://www.w3.org/2000/svg"><title>add-circle-o</title><path d="M9 7H12V9H9V12H7V9H4V7H7V4H9V7ZM16 8C16 12.4 12.4 16 8 16C3.6 16 0 12.4 0 8C0 3.6 3.6 0 8 0C12.4 0 16 3.6 16 8ZM14.5 8C14.5 4.4 11.6 1.5 8 1.5C4.4 1.5 1.5 4.4 1.5 8C1.5 11.6 4.4 14.5 8 14.5C11.6 14.5 14.5 11.6 14.5 8Z" fill="rgb(34, 34, 34)" fill-opacity="1.00"/></svg>
